build/Karasa-Jaga/scalable/emblems/emblem-videos-symbolic.svg

<svg height="16" width="16" xmlns="http://www.w3.org/2000/svg"><path d="m1.21875.5v15h2.90625 7.75 2.90625v-15h-.96875v.90625h-.96875v-.90625h-.96875-7.75-.96875v.90625h-.96875v-.90625zm2.90625 1.34375h7.75v.875 1.34375 3.28125h-7.75v-3.28125-1.34375zm-1.9375.875h.96875v1.34375h-.96875zm10.65625 0h.96875v1.34375h-.96875zm-10.65625 2.65625h.96875v1.3125h-.96875zm10.65625 0h.96875v1.3125h-.96875zm-10.65625 2.625h.96875v1.3125h-.96875zm10.65625 0h.96875v1.3125h-.96875zm-8.71875.65625h7.75v1.96875 1.3125 2.21875h-7.75v-2.21875-1.3125zm-1.9375 1.96875h.96875v1.3125h-.96875zm10.65625 0h.96875v1.3125h-.96875zm-10.65625 2.65625h.96875v1.3125h-.96875zm10.65625 0h.96875v1.3125h-.96875z" fill="#bebebe"/></svg>

<?xml version="1.0" encoding="UTF-8" standalone="no"?>
<!-- Created with Inkscape (http://www.inkscape.org/) -->

<svg
   xmlns:dc="http://purl.org/dc/elements/1.1/"
   xmlns:cc="http://creativecommons.org/ns#"
   xmlns:rdf="http://www.w3.org/1999/02/22-rdf-syntax-ns#"
   xmlns:svg="http://www.w3.org/2000/svg"
   xmlns="http://www.w3.org/2000/svg"
   xmlns:sodipodi="http://sodipodi.sourceforge.net/DTD/sodipodi-0.dtd"
   xmlns:inkscape="http://www.inkscape.org/namespaces/inkscape"
   width="16px"
   height="16px"
   id="svg12722"
   version="1.1"
   inkscape:version="0.48.3.1 r9886"
   sodipodi:docname="emblem-videos-symbolic.svg">
  <defs
     id="defs12724">
    <linearGradient
       gradientUnits="userSpaceOnUse"
       id="linearGradient3696"
       y2="21"
       x2="15"
       y1="2"
       x1="15">
      <stop
         offset="0"
         style="stop-color:#eeeeec;stop-opacity:1"
         id="stop3700" />
      <stop
         offset="0.79220003"
         style="stop-color:#babdb6;stop-opacity:1"
         id="stop3702" />
      <stop
         offset="1"
         style="stop-color:#a1a59b;stop-opacity:1"
         id="stop3704" />
    </linearGradient>
    <linearGradient
       gradientUnits="userSpaceOnUse"
       id="linearGradient4117"
       y2="34.612"
       x2="22.402"
       y1="15.722"
       x1="22.146999">
      <stop
         offset="0"
         style="stop-color:#ffffff;stop-opacity:1"
         id="stop4113" />
      <stop
         offset="1"
         style="stop-color:#ffffff;stop-opacity:0"
         id="stop4115" />
    </linearGradient>
    <linearGradient
       id="linearGradient5841">
      <stop
         offset="0"
         style="stop-color:#37e700;stop-opacity:1"
         id="stop5843" />
      <stop
         offset="0.5"
         style="stop-color:#3dfe00;stop-opacity:1"
         id="stop5849" />
      <stop
         offset="1"
         style="stop-color:#2aad00;stop-opacity:1"
         id="stop5845" />
    </linearGradient>
  </defs>
  <sodipodi:namedview
     id="base"
     pagecolor="#ffffff"
     bordercolor="#666666"
     borderopacity="1.0"
     inkscape:pageopacity="0.0"
     inkscape:pageshadow="2"
     inkscape:zoom="11.313709"
     inkscape:cx="2.2121485"
     inkscape:cy="3.6576969"
     inkscape:current-layer="layer1"
     showgrid="true"
     inkscape:grid-bbox="true"
     inkscape:document-units="px"
     inkscape:window-width="1366"
     inkscape:window-height="696"
     inkscape:window-x="0"
     inkscape:window-y="0"
     inkscape:window-maximized="1" />
  <metadata
     id="metadata12727">
    <rdf:RDF>
      <cc:Work
         rdf:about="">
        <dc:format>image/svg+xml</dc:format>
        <dc:type
           rdf:resource="http://purl.org/dc/dcmitype/StillImage" />
        <dc:title />
      </cc:Work>
    </rdf:RDF>
  </metadata>
  <g
     id="layer1"
     inkscape:label="Layer 1"
     inkscape:groupmode="layer">
    <path
       style="color:#000000;fill:#bebebe;enable-background:new"
       d="M 1.21875 0.5 L 1.21875 15.5 L 4.125 15.5 L 11.875 15.5 L 14.78125 15.5 L 14.78125 0.5 L 13.8125 0.5 L 13.8125 1.40625 L 12.84375 1.40625 L 12.84375 0.5 L 11.875 0.5 L 4.125 0.5 L 3.15625 0.5 L 3.15625 1.40625 L 2.1875 1.40625 L 2.1875 0.5 L 1.21875 0.5 z M 4.125 1.84375 L 11.875 1.84375 L 11.875 2.71875 L 11.875 4.0625 L 11.875 7.34375 L 4.125 7.34375 L 4.125 4.0625 L 4.125 2.71875 L 4.125 1.84375 z M 2.1875 2.71875 L 3.15625 2.71875 L 3.15625 4.0625 L 2.1875 4.0625 L 2.1875 2.71875 z M 12.84375 2.71875 L 13.8125 2.71875 L 13.8125 4.0625 L 12.84375 4.0625 L 12.84375 2.71875 z M 2.1875 5.375 L 3.15625 5.375 L 3.15625 6.6875 L 2.1875 6.6875 L 2.1875 5.375 z M 12.84375 5.375 L 13.8125 5.375 L 13.8125 6.6875 L 12.84375 6.6875 L 12.84375 5.375 z M 2.1875 8 L 3.15625 8 L 3.15625 9.3125 L 2.1875 9.3125 L 2.1875 8 z M 12.84375 8 L 13.8125 8 L 13.8125 9.3125 L 12.84375 9.3125 L 12.84375 8 z M 4.125 8.65625 L 11.875 8.65625 L 11.875 10.625 L 11.875 11.9375 L 11.875 14.15625 L 4.125 14.15625 L 4.125 11.9375 L 4.125 10.625 L 4.125 8.65625 z M 2.1875 10.625 L 3.15625 10.625 L 3.15625 11.9375 L 2.1875 11.9375 L 2.1875 10.625 z M 12.84375 10.625 L 13.8125 10.625 L 13.8125 11.9375 L 12.84375 11.9375 L 12.84375 10.625 z M 2.1875 13.28125 L 3.15625 13.28125 L 3.15625 14.59375 L 2.1875 14.59375 L 2.1875 13.28125 z M 12.84375 13.28125 L 13.8125 13.28125 L 13.8125 14.59375 L 12.84375 14.59375 L 12.84375 13.28125 z "
       id="rect5523" />
  </g>
</svg>
